X: 16004
T: Great Exhibition, The
R: hornpipe
M: 4/4
K: Dmajor
|:A>c|d>Af>d A>dF>A|A>GB>G E2 A>G|F>Ad>c B>eg>f|(3efd (3cdB A>gf>e|
d>Afd A>dF>A|A>GB>G E>BA>G|F>dA>F G>ge>c|e2 d2 d2:|
|:F>G|A>Bc>d e>Ac>e|d>FA>d f>Ad>f|f>eg>f e>dc>d|(3efd (3cdB A>gf>e|
d>Af>d A>dF>A|A>GB>G E>BA>G|F>dA>F G>ge>c|e2 d2 d2:|

